X: 30352
T: Old Pensioner, The
R: reel
M: 4/4
K: Dmajor
d2 cA BE ~E2|EDAD FABc|(3ded cA BE ~E2|(3Bcd ed cABc|
(3ded cA BE ~E2|EDAD FABc|(3ded cA BE ~E2|(3Bcd ec d2AB||
(3ddd fd adfd|d2 fd cd eB|(3ddd fd adfd|dBAF EF AB|
(3ddd fd adfd|d2 fd cd eB|de fd cd ed|dBAF EFAB||

